X: 843
T: Will You Come Home With Me?
N:"2nd Setting"
N:"Collected by F.O'Neill"
B:O'Neill's 843
Z:Transcribed by Dan G. Petersen, dangp@post6.tele.dk
M:6/8
L:1/8
K:G
(G/A/)|BAB cBc|ded cAG|ABA (A<B).G|ABA (A<B).G |
BAB cBc|ded cAF|GAG A2F|GAG G2:|
(d/e/)|fef def|gag fdc|ABA (A<B).G|ABA (A<B).G|
fef def|gag fdB|GAG A2F|GAG G2:|


